packages/core/src/svgs/ooe.svg

<svg width="24" height="24" viewBox="0 0 24 24" fill="none" xmlns="http://www.w3.org/2000/svg">
<g clip-path="url(#clip0_31_15454)">
<path d="M0 0H24V24H0V0Z" fill="#F0F3FA"/>
<path fill-rule="evenodd" clip-rule="evenodd" d="M18.84 12.4714C18.8557 12.2417 18.86 12.0115 18.8528 11.7814C19.41 11.7471 20.0914 11.5671 20.4643 11.4471C20.4959 11.437 20.5234 11.4169 20.5427 11.3899C20.562 11.3628 20.5721 11.3303 20.5714 11.2971V9.99853C20.5703 9.973 20.5635 9.94804 20.5515 9.92547C20.5395 9.9029 20.5227 9.8833 20.5021 9.8681C20.4816 9.8529 20.4579 9.84249 20.4328 9.83762C20.4077 9.83275 20.3819 9.83355 20.3571 9.83996C20.0014 9.94282 19.3714 10.08 18.6043 10.1314H18.6C18.154 8.5498 17.1549 7.18096 15.7845 6.27407C14.4142 5.36719 12.7637 4.98258 11.1336 5.19025C9.50352 5.39792 8.00221 6.18408 6.90301 7.40559C5.80381 8.6271 5.17982 10.2027 5.14464 11.8456C5.10946 13.4885 5.66543 15.0894 6.71134 16.3568C7.75724 17.6243 9.22352 18.474 10.8432 18.7512C12.4629 19.0285 14.1283 18.7149 15.5363 17.8675C16.9442 17.0201 18.001 15.6953 18.5143 14.1342L18.6043 14.1428C19.1957 14.1642 20.0314 13.9457 20.4643 13.8C20.4952 13.79 20.5222 13.7706 20.5414 13.7444C20.5607 13.7183 20.5712 13.6867 20.5714 13.6542V12.3557C20.5703 12.3301 20.5635 12.3052 20.5515 12.2826C20.5395 12.26 20.5227 12.2404 20.5021 12.2252C20.4816 12.21 20.4579 12.1996 20.4328 12.1948C20.4077 12.1899 20.3819 12.1907 20.3571 12.1971C20.04 12.2871 19.5 12.4114 18.84 12.4671V12.4714ZM17.1343 12.3171C17.1501 12.0529 17.1458 11.7878 17.1214 11.5242L16.8771 11.4728C16.0028 11.28 15.0771 11.0785 14.6528 11.1128C14.25 11.1471 13.5128 11.3271 13.0586 11.4471C13.0349 11.4538 13.0099 11.4548 12.9857 11.4502C12.9616 11.4455 12.9388 11.4353 12.9193 11.4203C12.8997 11.4054 12.8839 11.386 12.8731 11.3639C12.8624 11.3418 12.8569 11.3174 12.8571 11.2928V9.88282C12.8571 9.81425 12.9 9.75425 12.96 9.7371C13.32 9.61282 14.0314 9.42853 14.6528 9.42853C15.03 9.42853 15.5871 9.57425 16.2043 9.72853L16.6757 9.85282C16.1798 8.77284 15.3251 7.89794 14.257 7.37687C13.1889 6.8558 11.9733 6.72071 10.8169 6.99458C9.6605 7.26844 8.63461 7.93435 7.91366 8.8791C7.19271 9.82385 6.8212 10.9891 6.86228 12.1768C6.90337 13.3645 7.35452 14.5013 8.13904 15.394C8.92355 16.2867 9.99301 16.8801 11.1656 17.0734C12.3382 17.2667 13.5415 17.0479 14.571 16.4543C15.6006 15.8606 16.3927 14.9288 16.8128 13.8171C15.9557 13.6285 15.0686 13.4357 14.6528 13.4742C14.25 13.5042 13.5128 13.6842 13.0586 13.8042C13.0349 13.8109 13.0099 13.8119 12.9857 13.8073C12.9616 13.8026 12.9388 13.7924 12.9193 13.7775C12.8997 13.7625 12.8839 13.7432 12.8731 13.721C12.8624 13.6989 12.8569 13.6746 12.8571 13.65V12.24C12.8571 12.1714 12.9 12.1114 12.96 12.0942C13.32 11.97 14.0314 11.7857 14.6528 11.7857C15.03 11.7857 15.5871 11.9314 16.2043 12.0857C16.5043 12.1714 16.8214 12.2485 17.1343 12.3171Z" fill="black"/>
</g>
<defs>
<clipPath id="clip0_31_15454">
<rect width="24" height="24" fill="white"/>
</clipPath>
</defs>
</svg>

<svg xmlns="http://www.w3.org/2000/svg" width="24" height="24" fill="none" viewBox="0 0 24 24"><g clip-path="url(#a)"><path fill="#F0F3FA" d="M0 0h24v24H0z"/><path fill="#000" fill-rule="evenodd" d="M18.84 12.471q.024-.345.013-.69c.557-.034 1.238-.214 1.611-.334a.154.154 0 0 0 .107-.15V10a.17.17 0 0 0-.214-.159c-.356.103-.986.24-1.753.291H18.6a6.857 6.857 0 1 0-.086 4.003l.09.009c.592.021 1.427-.197 1.86-.343a.15.15 0 0 0 .107-.146v-1.298a.17.17 0 0 0-.214-.159c-.317.09-.857.214-1.517.27zm-1.706-.154q.024-.397-.013-.793l-.244-.051c-.874-.193-1.8-.395-2.224-.36-.403.034-1.14.214-1.594.334a.16.16 0 0 1-.202-.154v-1.41a.15.15 0 0 1 .103-.146c.36-.124 1.071-.308 1.693-.308.377 0 .934.145 1.551.3l.472.124a5.143 5.143 0 1 0 .137 3.964c-.857-.188-1.744-.381-2.16-.343-.403.03-1.14.21-1.594.33a.16.16 0 0 1-.202-.154v-1.41a.15.15 0 0 1 .103-.146c.36-.124 1.071-.308 1.693-.308.377 0 .934.145 1.551.3.3.085.617.162.93.231" clip-rule="evenodd"/></g><defs><clipPath id="a"><path fill="#fff" d="M0 0h24v24H0z"/></clipPath></defs></svg>
